icon-themes/breeze_svg/cmd/32/objectforwardone.svg

<svg viewBox="0 0 32 32" xmlns="http://www.w3.org/2000/svg"><path d="m15 5v1h13v-1zm-11 7v1h24v-1zm4.4980469 3-.9980469 1-4 4 .7070313.707031 3.7929687-3.792969v11.085938h1v-11.085938l3.791016 3.792969.707031-.707031-4.0000005-4-.9980465-1zm6.5019531 5v1h13v-1zm0 7v1h13v-1z" fill="#4d4d4d"/></svg>

<svg xmlns="http://www.w3.org/2000/svg" viewBox="0 0 32 32">
 <path 
     style="fill:#4d4d4d" 
     d="M 15 5 L 15 6 L 28 6 L 28 5 L 15 5 z M 4 12 L 4 13 L 28 13 L 28 12 L 4 12 z M 9.0371094 15 L 8.0390625 16 L 4.0390625 20 L 4.7460938 20.707031 L 8.5390625 16.914062 L 8.5390625 28 L 9.5390625 28 L 9.5390625 16.914062 L 13.330078 20.707031 L 14.037109 20 L 10.037109 16 L 9.0390625 15 L 9.0371094 15 z M 15 20 L 15 21 L 28 21 L 28 20 L 15 20 z M 15 27 L 15 28 L 28 28 L 28 27 L 15 27 z "
     />
</svg>
